assets/P button/Flat/p_button_flat.svg

<svg width="32" height="32" viewBox="0 0 32 32" fill="none" xmlns="http://www.w3.org/2000/svg">
<path d="M2 6C2 3.79086 3.79086 2 6 2H26C28.2091 2 30 3.79086 30 6V26C30 28.2091 28.2091 30 26 30H6C3.79086 30 2 28.2091 2 26V6Z" fill="#00A6ED"/>
<path d="M10.9609 9.5C10.9609 8.67157 11.6325 8 12.4609 8H18C20.853 8 23.0703 10.0675 23.0703 13C23.0703 14.4117 22.5477 15.6801 21.5999 16.5929C20.6574 17.5007 19.3789 17.9766 18 17.9766H14.2109C14.0729 17.9766 13.9609 18.0885 13.9609 18.2266V23.5156C13.9609 24.3441 13.2894 25.0156 12.4609 25.0156C11.6325 25.0156 10.9609 24.3441 10.9609 23.5156V9.5ZM13.9609 14.7266C13.9609 14.8646 14.0729 14.9766 14.2109 14.9766H18C18.6857 14.9766 19.1924 14.7465 19.5189 14.4321C19.8401 14.1227 20.0703 13.6529 20.0703 13C20.0703 11.8033 19.2762 11 18 11H14.2109C14.0729 11 13.9609 11.1119 13.9609 11.25V14.7266Z" fill="white"/>
</svg>

<svg xmlns="http://www.w3.org/2000/svg" width="32" height="32" fill="none"><path fill="#00A6ED" d="M2 6a4 4 0 0 1 4-4h20a4 4 0 0 1 4 4v20a4 4 0 0 1-4 4H6a4 4 0 0 1-4-4V6Z"/><path fill="#fff" d="M10.96 9.5a1.5 1.5 0 0 1 1.5-1.5H18c2.853 0 5.07 2.068 5.07 5 0 1.412-.522 2.68-1.47 3.593-.943.908-2.221 1.384-3.6 1.384h-3.79a.25.25 0 0 0-.25.25v5.289a1.5 1.5 0 1 1-3 0V9.5Zm3 5.227c0 .138.113.25.25.25H18c.686 0 1.192-.23 1.519-.545.321-.31.551-.78.551-1.432 0-1.197-.794-2-2.07-2h-3.79a.25.25 0 0 0-.25.25v3.477Z"/></svg>
